src/img/icons/gnome-music.svg

<svg xmlns="http://www.w3.org/2000/svg" xmlns:xlink="http://www.w3.org/1999/xlink" width="384pt" height="384pt" version="1.1" viewBox="0 0 384 384"> <defs> <filter id="alpha" width="100%" height="100%" x="0%" y="0%" filterUnits="objectBoundingBox"> <feColorMatrix in="SourceGraphic" type="matrix" values="0 0 0 0 1 0 0 0 0 1 0 0 0 0 1 0 0 0 1 0"/> </filter> <mask id="mask0"> <g filter="url(#alpha)"> <rect width="384" height="384" x="0" y="0" style="fill:rgb(0%,0%,0%);fill-opacity:0.2"/> </g> </mask> <clipPath id="clip1"> <rect width="384" height="384" x="0" y="0"/> </clipPath> <g id="surface5" clip-path="url(#clip1)"> <path style="fill:rgb(100.000%,100.000%,100.000%)" d="M 84.921875 23.25 L 299.585938 23.25 C 312.328125 23.25 322.585938 33.421875 322.585938 46.25 C 322.585938 34.601562 307.253906 30.917969 299.585938 30.917969 C 291.921875 30.917969 92.589844 30.917969 84.921875 30.917969 C 77.253906 30.917969 61.921875 35.167969 61.921875 46.25 C 61.921875 33.3125 72.308594 23.25 84.921875 23.25 Z M 84.921875 23.25"/> </g> <mask id="mask1"> <g filter="url(#alpha)"> <rect width="384" height="384" x="0" y="0" style="fill:rgb(0%,0%,0%);fill-opacity:0.2"/> </g> </mask> <clipPath id="clip2"> <rect width="384" height="384" x="0" y="0"/> </clipPath> <g id="surface8" clip-path="url(#clip2)"> <path style="fill:rgb(0%,0%,0%)" d="M 84.921875 360.582031 L 299.585938 360.582031 C 312.328125 360.582031 322.585938 350.40625 322.585938 337.582031 C 322.585938 349.230469 307.253906 352.914062 299.585938 352.914062 C 291.921875 352.914062 92.589844 352.914062 84.921875 352.914062 C 77.253906 352.914062 61.921875 348.660156 61.921875 337.582031 C 61.921875 350.519531 72.308594 360.582031 84.921875 360.582031 Z M 84.921875 360.582031"/> </g> <mask id="mask2"> <g filter="url(#alpha)"> <rect width="384" height="384" x="0" y="0" style="fill:rgb(0%,0%,0%);fill-opacity:0.2"/> </g> </mask> <clipPath id="clip3"> <rect width="384" height="384" x="0" y="0"/> </clipPath> <g id="surface11" clip-path="url(#clip3)"> <path style="fill:rgb(100.000%,100.000%,100.000%)" d="M 211.421875 80.75 C 211.421875 72.820312 202.839844 64.320312 192.253906 64.320312 C 181.667969 64.320312 173.085938 72.214844 173.085938 80.75 C 173.085938 70.164062 181.667969 61.582031 192.253906 61.582031 C 202.839844 61.582031 211.421875 70.164062 211.421875 80.75 Z M 211.421875 80.75"/> </g> <mask id="mask3"> <g filter="url(#alpha)"> <rect width="384" height="384" x="0" y="0" style="fill:rgb(0%,0%,0%);fill-opacity:0.2"/> </g> </mask> <clipPath id="clip4"> <rect width="384" height="384" x="0" y="0"/> </clipPath> <g id="surface14" clip-path="url(#clip4)"> <path style="fill:rgb(0%,0%,0%)" d="M 211.421875 80.75 C 211.421875 88.679688 202.839844 97.179688 192.253906 97.179688 C 181.667969 97.179688 173.085938 89.28125 173.085938 80.75 C 173.085938 91.335938 181.667969 99.914062 192.253906 99.914062 C 202.839844 99.914062 211.421875 91.335938 211.421875 80.75 Z M 211.421875 80.75"/> </g> <mask id="mask4"> <g filter="url(#alpha)"> <rect width="384" height="384" x="0" y="0" style="fill:rgb(0%,0%,0%);fill-opacity:0.301961"/> </g> </mask> <clipPath id="clip5"> <rect width="384" height="384" x="0" y="0"/> </clipPath> <g id="surface17" clip-path="url(#clip5)"> <path style="fill:rgb(0%,0%,0%)" d="M 284.253906 237.914062 C 284.253906 193.386719 242.878906 153.582031 192.253906 153.582031 C 141.628906 153.582031 100.253906 193.886719 100.253906 237.914062 C 100.253906 184.25 141.628906 145.914062 192.253906 145.914062 C 242.878906 145.914062 284.253906 184.25 284.253906 237.914062 Z M 284.253906 237.914062"/> </g> <mask id="mask5"> <g filter="url(#alpha)"> <rect width="384" height="384" x="0" y="0" style="fill:rgb(0%,0%,0%);fill-opacity:0.301961"/> </g> </mask> <clipPath id="clip6"> <rect width="384" height="384" x="0" y="0"/> </clipPath> <g id="surface20" clip-path="url(#clip6)"> <path style="fill:rgb(100.000%,100.000%,100.000%)" d="M 284.253906 237.914062 C 284.253906 282.441406 242.878906 322.246094 192.253906 322.246094 C 141.628906 322.246094 100.253906 281.945312 100.253906 237.914062 C 100.253906 291.582031 141.628906 329.914062 192.253906 329.914062 C 242.878906 329.914062 284.253906 291.582031 284.253906 237.914062 Z M 284.253906 237.914062"/> </g> <mask id="mask6"> <g filter="url(#alpha)"> <rect width="384" height="384" x="0" y="0" style="fill:rgb(0%,0%,0%);fill-opacity:0.2"/> </g> </mask> <clipPath id="clip7"> <rect width="384" height="384" x="0" y="0"/> </clipPath> <g id="surface23" clip-path="url(#clip7)"> <path style="fill:rgb(100.000%,100.000%,100.000%)" d="M 219.085938 237.914062 C 219.085938 226.8125 207.074219 214.914062 192.253906 214.914062 C 177.433594 214.914062 165.421875 225.96875 165.421875 237.914062 C 165.421875 223.09375 177.433594 211.082031 192.253906 211.082031 C 207.074219 211.082031 219.085938 223.09375 219.085938 237.914062 Z M 219.085938 237.914062"/> </g> <mask id="mask7"> <g filter="url(#alpha)"> <rect width="384" height="384" x="0" y="0" style="fill:rgb(0%,0%,0%);fill-opacity:0.2"/> </g> </mask> <clipPath id="clip8"> <rect width="384" height="384" x="0" y="0"/> </clipPath> <g id="surface26" clip-path="url(#clip8)"> <path style="fill:rgb(0%,0%,0%)" d="M 219.085938 237.914062 C 219.085938 249.015625 207.074219 260.914062 192.253906 260.914062 C 177.433594 260.914062 165.421875 249.863281 165.421875 237.914062 C 165.421875 252.734375 177.433594 264.746094 192.253906 264.746094 C 207.074219 264.746094 219.085938 252.734375 219.085938 237.914062 Z M 219.085938 237.914062"/> </g> </defs> <g> <path style="fill:rgb(20.000%,20.000%,20.000%)" d="M 84.417969 23.421875 L 299.082031 23.421875 C 311.785156 23.421875 322.082031 33.71875 322.082031 46.421875 L 322.082031 337.75 C 322.082031 350.453125 311.785156 360.75 299.082031 360.75 L 84.417969 360.75 C 71.714844 360.75 61.417969 350.453125 61.417969 337.75 L 61.417969 46.421875 C 61.417969 33.71875 71.714844 23.421875 84.417969 23.421875 Z M 84.417969 23.421875"/> <path style="fill:rgb(9.803%,9.803%,9.803%)" d="M 96.886719 41.949219 C 92.394531 37.460938 85.113281 37.460938 80.625 41.949219 C 76.132812 46.441406 76.132812 53.722656 80.625 58.214844 C 85.113281 62.707031 92.394531 62.707031 96.886719 58.214844 C 101.378906 53.722656 101.378906 46.441406 96.886719 41.949219 Z M 92.820312 43.304688 L 95.53125 46.015625 L 91.464844 50.082031 L 95.53125 54.148438 L 92.820312 56.859375 L 88.753906 52.792969 L 84.6875 56.859375 L 81.980469 54.148438 L 86.042969 50.082031 L 81.980469 46.015625 L 84.6875 43.304688 L 88.753906 47.371094 Z M 92.820312 43.304688"/> <path style="fill:rgb(9.803%,9.803%,9.803%)" d="M 303.886719 41.949219 C 299.394531 37.460938 292.113281 37.460938 287.621094 41.949219 C 283.128906 46.441406 283.128906 53.722656 287.621094 58.214844 C 292.113281 62.707031 299.394531 62.707031 303.886719 58.214844 C 308.375 53.722656 308.375 46.441406 303.886719 41.949219 Z M 299.820312 43.304688 L 302.53125 46.015625 L 298.464844 50.082031 L 302.53125 54.148438 L 299.820312 56.859375 L 295.753906 52.792969 L 291.6875 56.859375 L 288.976562 54.148438 L 293.042969 50.082031 L 288.976562 46.015625 L 291.6875 43.304688 L 295.753906 47.371094 Z M 299.820312 43.304688"/> <path style="fill:rgb(9.803%,9.803%,9.803%)" d="M 303.886719 325.617188 C 299.394531 321.125 292.113281 321.125 287.621094 325.617188 C 283.128906 330.105469 283.128906 337.386719 287.621094 341.878906 C 292.113281 346.371094 299.394531 346.371094 303.886719 341.878906 C 308.375 337.386719 308.375 330.105469 303.886719 325.617188 Z M 299.820312 326.972656 L 302.53125 329.683594 L 298.464844 333.746094 L 302.53125 337.8125 L 299.820312 340.523438 L 295.753906 336.457031 L 291.6875 340.523438 L 288.976562 337.8125 L 293.042969 333.746094 L 288.976562 329.683594 L 291.6875 326.972656 L 295.753906 331.035156 Z M 299.820312 326.972656"/> <path style="fill:rgb(9.803%,9.803%,9.803%)" d="M 96.886719 325.617188 C 92.394531 321.125 85.113281 321.125 80.625 325.617188 C 76.132812 330.105469 76.132812 337.386719 80.625 341.878906 C 85.113281 346.371094 92.394531 346.371094 96.886719 341.878906 C 101.378906 337.386719 101.378906 330.105469 96.886719 325.617188 Z M 92.820312 326.972656 L 95.53125 329.683594 L 91.464844 333.746094 L 95.53125 337.8125 L 92.820312 340.523438 L 88.753906 336.457031 L 84.6875 340.523438 L 81.980469 337.8125 L 86.042969 333.746094 L 81.980469 329.683594 L 84.6875 326.972656 L 88.753906 331.035156 Z M 92.820312 326.972656"/> <use mask="url(#mask0)" xlink:href="#surface5"/> <use mask="url(#mask1)" xlink:href="#surface8"/> <path style="fill:rgb(9.803%,9.803%,9.803%)" d="M 226.753906 80.75 C 226.753906 99.804688 211.308594 115.25 192.253906 115.25 C 173.199219 115.25 157.753906 99.804688 157.753906 80.75 C 157.753906 61.695312 173.199219 46.25 192.253906 46.25 C 211.308594 46.25 226.753906 61.695312 226.753906 80.75 Z M 226.753906 80.75"/> <path style="fill:rgb(20.000%,20.000%,20.000%)" d="M 211.421875 80.75 C 211.421875 91.335938 202.839844 99.914062 192.253906 99.914062 C 181.667969 99.914062 173.089844 91.335938 173.089844 80.75 C 173.089844 70.164062 181.667969 61.582031 192.253906 61.582031 C 202.839844 61.582031 211.421875 70.164062 211.421875 80.75 Z M 211.421875 80.75"/> <use mask="url(#mask2)" xlink:href="#surface11"/> <use mask="url(#mask3)" xlink:href="#surface14"/> <path style="fill:rgb(100.000%,78.039%,18.823%)" d="M 288.085938 237.914062 C 288.085938 290.84375 245.179688 333.746094 192.253906 333.746094 C 139.328125 333.746094 96.421875 290.84375 96.421875 237.914062 C 96.421875 184.988281 139.328125 142.082031 192.253906 142.082031 C 245.179688 142.082031 288.085938 184.988281 288.085938 237.914062 Z M 288.085938 237.914062"/> <use mask="url(#mask4)" xlink:href="#surface17"/> <use mask="url(#mask5)" xlink:href="#surface20"/> <path style="fill:none;stroke-width:10.222138;stroke:rgb(9.803%,9.803%,9.803%)" d="M 384.114583 857.58095 C 384.114583 928.153867 326.90625 985.356992 256.338542 985.356992 C 185.770833 985.356992 128.5625 928.153867 128.5625 857.58095 C 128.5625 787.013242 185.770833 729.804908 256.338542 729.804908 C 326.90625 729.804908 384.114583 787.013242 384.114583 857.58095 Z M 384.114583 857.58095" transform="matrix(0.75,0,0,0.75,0,-405.27165)"/> <path style="fill:rgb(9.803%,9.803%,9.803%)" d="M 222.921875 237.914062 C 222.921875 220.976562 209.191406 207.25 192.253906 207.25 C 175.316406 207.25 161.585938 220.976562 161.585938 237.914062 C 161.585938 254.851562 175.316406 268.582031 192.253906 268.582031 C 209.191406 268.582031 222.921875 254.851562 222.921875 237.914062 Z M 222.921875 237.914062"/> <path style="fill:rgb(20.000%,20.000%,20.000%)" d="M 219.085938 237.914062 C 219.085938 223.09375 207.074219 211.082031 192.253906 211.082031 C 177.433594 211.082031 165.421875 223.09375 165.421875 237.914062 C 165.421875 252.734375 177.433594 264.746094 192.253906 264.746094 C 207.074219 264.746094 219.085938 252.734375 219.085938 237.914062 Z M 219.085938 237.914062"/> <use mask="url(#mask6)" xlink:href="#surface23"/> <use mask="url(#mask7)" xlink:href="#surface26"/> </g> </svg>

<svg width="512" height="512" version="1.1" viewBox="0 0 384 384" xmlns="http://www.w3.org/2000/svg"><defs><clipPath><rect width="384" height="384"/></clipPath><clipPath><rect width="384" height="384"/></clipPath><clipPath><rect width="384" height="384"/></clipPath><clipPath><rect width="384" height="384"/></clipPath><clipPath><rect width="384" height="384"/></clipPath><clipPath><rect width="384" height="384"/></clipPath><clipPath><rect width="384" height="384"/></clipPath><clipPath><rect width="384" height="384"/></clipPath></defs><path d="m84.418 23.422h214.66c12.703 0 23 10.297 23 23v291.33c0 12.703-10.297 23-23 23h-214.66c-12.703 0-23-10.297-23-23v-291.33c0-12.703 10.297-23 23-23z" fill="#333"/><g fill="#171717"><path d="m96.887 41.949c-4.4922-4.4883-11.773-4.4883-16.262 0-4.4922 4.4922-4.4922 11.773 0 16.266 4.4883 4.4922 11.77 4.4922 16.262 0 4.4922-4.4922 4.4922-11.773 0-16.266zm-4.0664 1.3555 2.7109 2.7109-4.0664 4.0664 4.0664 4.0664-2.7109 2.7109-4.0664-4.0664-4.0664 4.0664-2.707-2.7109 4.0625-4.0664-4.0625-4.0664 2.707-2.7109 4.0664 4.0664z"/><path d="m303.89 41.949c-4.4922-4.4883-11.773-4.4883-16.266 0-4.4922 4.4922-4.4922 11.773 0 16.266 4.4922 4.4922 11.773 4.4922 16.266 0 4.4883-4.4922 4.4883-11.773 0-16.266zm-4.0664 1.3555 2.7109 2.7109-4.0664 4.0664 4.0664 4.0664-2.7109 2.7109-4.0664-4.0664-4.0664 4.0664-2.7109-2.7109 4.0664-4.0664-4.0664-4.0664 2.7109-2.7109 4.0664 4.0664z"/><path d="m303.89 325.62c-4.4922-4.4922-11.773-4.4922-16.266 0-4.4922 4.4883-4.4922 11.77 0 16.262 4.4922 4.4922 11.773 4.4922 16.266 0 4.4883-4.4922 4.4883-11.773 0-16.262zm-4.0664 1.3555 2.7109 2.7109-4.0664 4.0625 4.0664 4.0664-2.7109 2.7109-4.0664-4.0664-4.0664 4.0664-2.7109-2.7109 4.0664-4.0664-4.0664-4.0625 2.7109-2.7109 4.0664 4.0625z"/><path d="m96.887 325.62c-4.4922-4.4922-11.773-4.4922-16.262 0-4.4922 4.4883-4.4922 11.77 0 16.262 4.4883 4.4922 11.77 4.4922 16.262 0 4.4922-4.4922 4.4922-11.773 0-16.262zm-4.0664 1.3555 2.7109 2.7109-4.0664 4.0625 4.0664 4.0664-2.7109 2.7109-4.0664-4.0664-4.0664 4.0664-2.707-2.7109 4.0625-4.0664-4.0625-4.0625 2.707-2.7109 4.0664 4.0625z"/><path d="m226.75 80.75c0 19.055-15.445 34.5-34.5 34.5-19.055 0-34.5-15.445-34.5-34.5s15.445-34.5 34.5-34.5c19.055 0 34.5 15.445 34.5 34.5z"/></g><path d="m211.42 80.75c0 10.586-8.582 19.164-19.168 19.164-10.586 0-19.164-8.5781-19.164-19.164s8.5781-19.168 19.164-19.168c10.586 0 19.168 8.582 19.168 19.168z" fill="#333"/><path d="m288.09 237.91c0 52.93-42.906 95.832-95.832 95.832-52.926 0-95.832-42.902-95.832-95.832 0-52.926 42.906-95.832 95.832-95.832 52.926 0 95.832 42.906 95.832 95.832z" fill="#ffc72e"/><path transform="scale(.75)" d="m128.76 310.22c-0.12515 2.3176-0.19336 4.6511-0.19336 7 0 70.573 57.208 127.78 127.78 127.78s127.78-57.202 127.78-127.78c0-2.3489-0.06821-4.6824-0.19335-7-3.6345 67.317-59.365 120.78-127.58 120.78-68.219 0-123.95-53.459-127.58-120.78z" fill="#fff" opacity=".3" stroke-width="1.3333"/><path d="m288.09 237.91c0 52.93-42.906 95.832-95.832 95.832-52.926 0-95.832-42.902-95.832-95.832 0-52.926 42.906-95.832 95.832-95.832 52.926 0 95.832 42.906 95.832 95.832z" fill="none" stroke="#171717" stroke-width="7.6666"/><path d="m222.92 237.91c0-16.938-13.73-30.664-30.668-30.664s-30.668 13.727-30.668 30.664 13.73 30.668 30.668 30.668 30.668-13.73 30.668-30.668z" fill="#171717"/><path d="m219.09 237.91c0-14.82-12.012-26.832-26.832-26.832-14.82 0-26.832 12.012-26.832 26.832s12.012 26.832 26.832 26.832c14.82 0 26.832-12.012 26.832-26.832z" fill="#333"/><path transform="scale(.75)" d="m112.56 31.229c-16.938 0-30.666 13.73-30.666 30.668v10c0-16.937 13.729-30.668 30.666-30.668h286.22c16.937 0 30.668 13.73 30.668 30.668v-10c0-16.938-13.73-30.668-30.668-30.668h-286.22z" fill="#fff" opacity=".3" stroke-width="1.3333"/><g><path d="m84.417 360.75c-12.703 0-23-10.298-23-23.001v-7.5c0 12.703 10.296 23.001 23 23.001h214.66c12.703 0 23.001-10.298 23.001-23.001v7.5c0 12.703-10.298 23.001-23.001 23.001z" opacity=".3"/><path transform="scale(.75)" d="m256.34 189.44c-70.568 0-127.78 57.208-127.78 127.78 0 2.349 0.06822 4.6823 0.19336 7 3.6347-67.312 59.363-120.78 127.58-120.78 68.219 0 123.95 53.463 127.58 120.78 0.12513-2.3177 0.19335-4.651 0.19335-7 0-70.568-57.21-127.78-127.78-127.78z" opacity=".3" stroke-width="1.3333"/><path transform="scale(.75)" d="m220.62 315.22c-0.03648 0.66216-0.05859 1.3287-0.05859 2 0 19.76 16.015 35.775 35.775 35.775 19.76 0 35.777-16.015 35.777-35.775 0-0.67129-0.0221-1.3378-0.05859-2-1.0375 18.83-16.63 33.775-35.719 33.775-19.089 0-34.679-14.946-35.717-33.775z" opacity=".3" stroke-width="1.3333"/></g><g stroke-width="1.3333"><path transform="scale(.75)" d="m256.34 281.44c-19.76 0-35.775 16.015-35.775 35.775 0 0.67129 0.02211 1.3378 0.05859 2 1.0375-18.83 16.628-33.775 35.717-33.775 19.089 0 34.681 14.946 35.719 33.775 0.03649-0.66216 0.05859-1.3287 0.05859-2 0-19.76-16.017-35.775-35.777-35.775z" fill="#fff" opacity=".3"/><path transform="scale(.75)" d="m230.81 106.67c-0.01281 0.33242-0.02539 0.66443-0.02539 1 0 14.115 11.436 25.553 25.551 25.553 14.115 0 25.559-11.438 25.559-25.553 0-0.33557-0.01257-0.66758-0.02539-1-0.52555 13.651-11.754 24.553-25.533 24.553-13.78 0-25-10.902-25.525-24.553z" opacity=".3"/><path transform="scale(.75)" d="m256.34 82.109c-14.115 0-25.551 11.442-25.551 25.557 0 0.33506 0.01262 0.66806 0.02539 1 0.52607-13.65 11.746-24.557 25.525-24.557 13.779 0 25.007 10.906 25.533 24.557 0.01278-0.33194 0.02539-0.66494 0.02539-1 0-14.115-11.444-25.557-25.559-25.557z" fill="#fff" opacity=".3"/></g></svg>
